recipes/workplace/icon.svg

<svg height="1024" viewBox="0 0 1024 1024" width="1024" xmlns="http://www.w3.org/2000/svg"><path d="m512 1024c282.769792 0 512-229.230208 512-512s-229.230208-512-512-512-512 229.230208-512 512 229.230208 512 512 512zm76.371906-878.448161c64.72776 13.356522 117.126422 42.124415 167.12776 91.783278 50.343812 50.343813 78.426755 102.057525 92.125752 169.867559 8.561873 42.466889 5.822074 110.619398-6.507023 151.716388-14.726422 49.316388-47.946489 108.222073-69.864883 124.660869-25.685619 18.836121-54.795987 23.630769-78.426756 12.671572-23.630769-11.301672-31.507692-26.028094-80.82408-149.661538-6.507024-16.781271-11.301673-25.000669-13.014047-22.26087-1.3699 2.397324-14.041472 33.562542-28.425418 68.837458-30.137793 75.002007-32.877592 80.481606-43.83679 90.070903-29.452842 27.055519-81.166555 23.630769-103.427424-6.849498-7.876923-10.616723-118.496321-277.404682-118.496321-285.62408 0-3.42475 11.301672-.68495 50.343812 0l50.686288 1.027424 24.658194 59.933111c14.041471 32.877592 29.795318 71.919732 35.959866 86.646154 5.822074 14.726421 11.644147 25.343143 13.356522 23.973244 1.3699-1.3699 15.068896-33.905017 30.137793-72.262208 15.411371-38.35719 30.480267-73.632107 33.562541-78.084281 3.082275-4.794648 12.671572-12.671571 21.233445-17.808695 22.26087-13.014047 50.343813-13.014047 72.947157.342475 19.178596 10.959197 25.000669 21.918394 64.72776 121.23612 13.698996 34.589967 26.028093 62.67291 27.397993 62.67291 1.369899 0 6.164548-9.589298 10.959197-21.57592 52.741137-132.195318-22.260869-278.774582-161.990635-316.104348-31.507693-8.561873-89.043479-7.534448-125.003345 1.712375-95.892976 25.000669-171.237458 97.262876-201.032776 192.128428-6.849498 22.260869-12.084281 39.757191-13.251505 79.06689 1.167224 32.922408 6.402007 56.210702 13.251505 78.471571 28.425418 89.385954 91.783278 156.168562 177.059532 185.621405 51.713712 17.808696 93.838127 19.863545 161.990636 7.534448l10.959197-2.054849v47.946488 48.288963l-12.671572 2.7398c-7.191973 1.369899-25.343144 6.164548-57.535786 6.164548-38.394649 0-75.002007-4.452174-105.824749-13.014047-166.100335-46.234113-279.459532-193.155853-279.459532-361.995986 0-168.155184 115.756522-318.844147 277.747157-360.968562 43.15184-11.301672 63.781271-11.986622 93.153177-11.986622 28.427253 0 53.083613 1.712374 70.207358 5.137123z" fill="#4b66a3" fill-rule="evenodd"/></svg>

<?xml version="1.0" encoding="UTF-8"?>
<svg width="1024px" height="1024px" viewBox="0 0 1024 1024" version="1.1" xmlns="http://www.w3.org/2000/svg" xmlns:xlink="http://www.w3.org/1999/xlink">
    <!-- Generator: Sketch 41.2 (35397) - http://www.bohemiancoding.com/sketch -->
    <title>Combined Shape</title>
    <desc>Created with Sketch.</desc>
    <defs></defs>
    <g id="Page-1" stroke="none" stroke-width="1" fill="none" fill-rule="evenodd">
        <path d="M512,1024 C794.769792,1024 1024,794.769792 1024,512 C1024,229.230208 794.769792,0 512,0 C229.230208,0 0,229.230208 0,512 C0,794.769792 229.230208,1024 512,1024 Z M588.371906,145.551839 C653.099666,158.908361 705.498328,187.676254 755.499666,237.335117 C805.843478,287.67893 833.926421,339.392642 847.625418,407.202676 C856.187291,449.669565 853.447492,517.822074 841.118395,558.919064 C826.391973,608.235452 793.171906,667.141137 771.253512,683.579933 C745.567893,702.416054 716.457525,707.210702 692.826756,696.251505 C669.195987,684.949833 661.319064,670.223411 612.002676,546.589967 C605.495652,529.808696 600.701003,521.589298 598.988629,524.329097 C597.618729,526.726421 584.947157,557.891639 570.563211,593.166555 C540.425418,668.168562 537.685619,673.648161 526.726421,683.237458 C497.273579,710.292977 445.559866,706.868227 423.298997,676.38796 C415.422074,665.771237 304.802676,398.983278 304.802676,390.76388 C304.802676,387.33913 316.104348,390.07893 355.146488,390.76388 L405.832776,391.791304 L430.49097,451.724415 C444.532441,484.602007 460.286288,523.644147 466.450836,538.370569 C472.27291,553.09699 478.094983,563.713712 479.807358,562.343813 C481.177258,560.973913 494.876254,528.438796 509.945151,490.081605 C525.356522,451.724415 540.425418,416.449498 543.507692,411.997324 C546.589967,407.202676 556.179264,399.325753 564.741137,394.188629 C587.002007,381.174582 615.08495,381.174582 637.688294,394.531104 C656.86689,405.490301 662.688963,416.449498 702.416054,515.767224 C716.11505,550.357191 728.444147,578.440134 729.814047,578.440134 C731.183946,578.440134 735.978595,568.850836 740.773244,556.864214 C793.514381,424.668896 718.512375,278.089632 578.782609,240.759866 C547.274916,232.197993 489.73913,233.225418 453.779264,242.472241 C357.886288,267.47291 282.541806,339.735117 252.746488,434.600669 C245.89699,456.861538 240.662207,474.35786 239.494983,513.667559 C240.662207,546.589967 245.89699,569.878261 252.746488,592.13913 C281.171906,681.525084 344.529766,748.307692 429.80602,777.760535 C481.519732,795.569231 523.644147,797.62408 591.796656,785.294983 L602.755853,783.240134 L602.755853,831.186622 L602.755853,879.475585 L590.084281,882.215385 C582.892308,883.585284 564.741137,888.379933 532.548495,888.379933 C494.153846,888.379933 457.546488,883.927759 426.723746,875.365886 C260.623411,829.131773 147.264214,682.210033 147.264214,513.3699 C147.264214,345.214716 263.020736,194.525753 425.011371,152.401338 C468.163211,141.099666 488.792642,140.414716 518.164548,140.414716 C546.591801,140.414716 571.248161,142.12709 588.371906,145.551839 Z" id="Combined-Shape" fill="#4B66A3"></path>
    </g>
</svg>
